X: 23750
T: Little Boy's
R: reel
M: 4/4
K: Dmajor
|:AG|:FA2A D2AF|GABG B2AG|FA2A D2AF|GFED E2AG|
FA2A D2AF|GABG B2ed|cdef gece|dfec d2:|
|:A/B/c|dede fece|dBAF G2EF|GABG AGFD|zE2A, E2A/B/c|
dede fece|dBAF G2EF|GABG AGFD|zE2E D2:|

